!!!OTL: Die beiden Hasen (3-55), S. 144
!!!id: K1185
**kern
*clefG2
*k[b-]
*F:
{8f
=1
8f
8c
8c
4f
4a
=2
8a
8g
8g
8f
4g}
=3
{8c
8e
4g
4b-
=4
4b-
4a}
4r
=5
{8cc
8b-
4a
4cc
=6
8dd
8cc
8b-
8a
4b-}
=7
{8b-
8a
4g
4b-
=8
8cc
8b-
8a
8g
4a}
=9
{8f
8a
4cc
8a
8f
=10
4g
4f}
4r
==
*-
!!!minrhy: 8
!!!meters: 3/4 ]  ZZ[5
!!!cut: Die beiden Hasen (3-55), S. 144
!!!reg: Luxemburg
!!!trd: KINTZELE, Guillaume: An der Ucht, Bd. 3 Luxemburg 1928
!!!rhy1:   XXX_X_  XXXXX_
!!!rhy2: XXX_X_  X_X_0_
!!!key: K1185  08  F 3/4 ]  ZZ[5
!!!mod: HEPTATONIK IONISCH]  AMBITUS[9
!!!kad: 23431
!!!akz: -53_-54_56_45_12_
!!!fot: 'a__b__c__cs_d__
!!!for: 'a__b__a__a__c__
!!!fok: '/__/__Sd_Sd_^__
!! PHRAS[VOLLTAKTIG]
!!!fkt: Scherz-, Jagdlied
!!!bem: in der Quelle mit einer 2. Stimme versehen
!! KINTZELE
!! PR[25] 2K[3] 2G[12] 3K[12] 3G[6] 4A[3] 4Ü[0] 5A[0] 6K[0] 6G[0]
!! 7K[0] 7G[0] 8A[0] MEHR[0] SI[37] ABS[65] SR[15] SP[22]
!! ST[24] 2k[6] 2g[18] 3k[9] 3g[2] 4d[0] 4ü[0] 5d[3] 6k[0] 6g[0]
!! 7k[0] 7g[0] 8d[0] mehr[0] si[38] dm[-1] sr[25] sp[14]
!! 1F[12] 2F[44] 3F[35] 4F[3] LF[0] 2P[6] 3P[0] 4P[0] TRI[0] DF[5] AB[68]
!! TF[0] U3K[0] U3[0] U4[0] U4Ü[0] U5[0] U6K[0] U6[0] U7K[0] U7[0]
!! N1[9] N2K[0] N2[9] N3K[0] N3[21] N4[9] N4Ü[0] N5[24] N6K[0] N6[21]
!!!n7k: 0] N7[0] O1[6] O2K[0] O2[0] O3K[0] O3[0] HÖ[0
